X: 3
T:Morning Hornpipe. FK.03
M:C
L:1/8
Q:160
C:Swallow's MS p123
S:Kidson's H'pipe MS,early 20thC.
R:Hornpipe
O:England
A:Leeds
N:"Swallow Ms p 123"in margin.
Z:vmp.John Bagnall
K:D
fe | dcdA FAdf | edcB Agfe | fafd bged | cdBc A2 fe |!
 dcdA FAdf | edcB Agfe | fafd egec | d2 d2 d2 ::!
ag | fgaf dfaf | gabg efge | fgaf bged | cdBc A2 (fe)|!
 dcdA FAdf | edcB Agfe | fafd egec | d2 d2 d2 :|]
